lib/images/registration/Registration-Logo.svg

<svg width="166" height="166" viewBox="0 0 166 166" xmlns="http://www.w3.org/2000/svg" xmlns:xlink="http://www.w3.org/1999/xlink"><title>downloads-logos-print-ram_logo_2_clr</title><defs><path id="a" d="M.06 166h165.23V.71H.06V166z"/></defs><g fill="none" fill-rule="evenodd"><mask id="b" fill="#fff"><use xlink:href="#a"/></mask><path d="M82.672 7.307c-41.945 0-76.07 34.1-76.07 76.017 0 41.95 34.125 76.078 76.07 76.078 41.914 0 76.016-34.127 76.016-76.078 0-41.916-34.102-76.017-76.016-76.017zm0 158.693C37.086 166 0 128.938 0 83.38 0 37.798 37.086.71 82.672.71c45.555 0 82.617 37.087 82.617 82.67 0 45.558-37.063 82.62-82.618 82.62z" fill="#A47F1D" mask="url(#b)"/><path d="M107.31 87.81c-1.236.75-3.978.376-5.1 2.26-1.503 2.47-1.83 2.838-2.474 2.625-1.447-5.8 5.1-13.215 7.627-10.9 1.985 1.768 2.043 4.668-.054 6.014zm1.503-9.507c-1.504-.807-3.543-1.188-5.368-.537-2.738.752-3.603 3.273-5.22 5.527-1.55 2.363-4.13 4.03-6.28 4.893-1.347 3.11.97 10.476 3.172 13.857 1.233 2.527 6.332 8.648 5.262 17.94 4.026-5.852 7.245-12.084 8.59-15.846 2.368-5.047 3.44-13.055 3.225-18.48-.32-2.634-.963-5.96-3.382-7.354zM63.04 90.07c-1.073-1.884-3.813-1.51-5.102-2.26-2.088-1.347-1.985-4.247-.05-6.015 2.526-2.315 9.08 5.1 7.63 10.9-.647.213-.967-.156-2.48-2.625zm7.095 11.973c2.205-3.38 4.517-10.746 3.174-13.857-2.15-.862-4.732-2.53-6.292-4.893-1.56-2.254-2.467-4.775-5.205-5.527-1.83-.65-3.875-.27-5.376.537-2.416 1.394-3.003 4.72-3.382 7.353-.16 5.426.855 13.434 3.218 18.48 1.4 3.763 4.622 9.995 8.647 15.848-1.125-9.293 4.03-15.414 5.215-17.94zM49.188 67.445c-2.852.485-3.387 4.68-1.243 7.2-1.98-.215-4.937-2.954-11.922-.754-2.414.756-5.156 1.725-5.533 4.837-.27 2.312 2.848 4.783 4.834 6.236 2.045 1.553 5.268 1.664 6.932 4.19 1.394 2.144 2.52 5.42 2.904 8.378.64 5.7.535 12.84 4.512 17.572.746-2.8-1.293-9.08-1.34-17.192-.064-3.01-1.19-6.45-2.957-8.71 3.273-.264 3.326.167 3.596-.856.32-1.02-.322-2.15-1.075-3.06-2.364-2.737-5.745-1.29-8.758-2.26-1.985-.696-5.043-1.715-5.207-4.506-.106-1.88 5.804-2.313 5.804-2.313 4.723.373 4.184 3.06 7.46 3.326 2.69.22 3.818-2.626 4.68-4.346 1.29-2.74 2.79-8.596-2.686-7.74zm86.375 11.282c-.375-3.112-3.114-4.08-5.528-4.836-6.988-2.2-9.94.54-11.98.756 2.2-2.52 1.662-6.716-1.233-7.2-5.43-.858-3.927 5-2.634 7.738.86 1.72 1.93 4.566 4.617 4.347 3.28-.266 2.787-2.952 7.52-3.325 0 0 5.907.432 5.808 2.313-.22 2.79-3.285 3.81-5.268 4.505-2.955.97-6.345-.476-8.76 2.262-.746.91-1.343 2.04-1.078 3.06.27 1.022.387.59 3.657.854-1.83 2.26-2.9 5.7-2.954 8.71-.1 8.112-2.148 14.393-1.343 17.192 3.926-4.733 3.867-11.87 4.515-17.57.373-2.96 1.446-6.235 2.903-8.38 1.664-2.525 4.836-2.636 6.925-4.19 1.99-1.452 5.1-3.923 4.833-6.235zm-52.75 18.435v-.006c-.02 0-.036.004-.055.004-.016 0-.03-.004-.05-.004v.006c-2.565.06-3.954 2.227-6.34 4.723-4.134 4.51-12.626 15.736-6.446 21.056 2.738 2.365 6.342 3.976 11.28 2.47 1.237-.855.536-3.38-.104-4.515-2.313-3.004-5.91-1.82-6.932-3.325-.97-1.45-.322-2.584.268-3.328.86-1.074 2.254-.808 3.437-.486 2.1.475 3.525 1.353 4.84 2.64v.096c.017-.017.034-.03.048-.047l.056.047v-.1c1.264-1.286 2.743-2.165 4.834-2.636 1.13-.322 2.58-.588 3.387.486.645.744 1.235 1.88.27 3.328-1.024 1.506-4.567.32-6.88 3.325-.64 1.134-1.398 3.66-.167 4.515 5.002 1.506 8.547-.105 11.285-2.47 6.234-5.32-2.254-16.545-6.447-21.055-2.326-2.494-3.774-4.664-6.282-4.723zm8.11 29.754c-2.728.27-5.72.908-8.134.86-2.415.048-5.41-.59-8.138-.86-.437-.05-.756.27-.756.27-1.59 3.396 7.55 5.273 8.866 5.213 1.318.06 10.508-1.818 8.918-5.214 0 0-.325-.32-.756-.27zm38.872 8.47c-2.28.91-4.67 1.292-7.002.216-1.836-.805-2.982-2.633-3.31-4.678-.424-3.006 1.253-6.55 2.712-8.918 2.016-3.377 6.625-9.287 11.938-13.21 7.545-5.59 12.805-7.147 10.855-8.435-1.36-.913-8.515 3.013-9.925 3.763-8.036 4.137-19.108 16.113-20.41 24.983-1.024 6.98 7.003 11.972 12.48 10.09-17.8 15.17-37.543 15.74-44.434 15.902v.002l-.028-.002-.03.002v-.002c-6.93-.162-26.732-.73-44.486-15.9 5.48 1.88 13.51-3.112 12.48-10.092-1.304-8.87-12.425-20.846-20.398-24.983-1.412-.75-8.578-4.676-9.933-3.762-1.953 1.29 3.306 2.847 10.85 8.437 5.322 3.922 9.88 9.832 11.884 13.21 1.52 2.366 3.2 5.91 2.767 8.917-.328 2.045-1.518 3.873-3.31 4.678-2.337 1.076-4.718.695-7.052-.215-3.578-1.293-6.457-4.082-8.953-7.47-4.72-6.393-9.328-13.75-11.668-21.538 2.004 4.458 14.705 23.097 20.348 23.366 5.8.322-5.643-15.146-13.512-21.592-1.898-1.558-4.07-3.388-4.496-6.293-.336-2.096.752-3.49 2.816-3.594 3.15-.11 11.342 4.134 11.446 3.976-14.21-25.515 7.543-38.406-1.46-43.996-3.154-1.992-9.818 0-13.458.537 33.48-19.77 39.332-.053 49.426 9.022 1.574 1.453 8.68 0 10.037-1.664 1.792-2.148 5.37-9.886 1.3-14.988-5.852-7.41-30.163-29.28-52.3-9.94C35.708 23.825 60.77 11 82.7 11.613c21.93-.614 46.827 12.212 57.62 29.6-22.195-19.34-46.44 2.53-52.36 9.94-4.01 5.102-.483 12.84 1.306 14.99 1.41 1.663 8.515 3.116 10.09 1.663 10.093-9.075 15.953-28.793 49.423-9.022-3.632-.537-10.358-2.53-13.448-.537-9.016 5.59 12.688 18.48-1.47 43.996.11.158 8.306-4.086 11.45-3.976 2.06.105 3.15 1.498 2.82 3.595-.433 2.906-2.657 4.736-4.503 6.294-7.87 6.446-19.314 21.914-13.566 21.592 5.696-.27 18.397-18.908 20.4-23.367-2.33 7.786-6.993 15.144-11.667 21.538-2.496 3.387-5.363 6.176-9.002 7.47zM82.668 8.202C41.254 8.2 7.52 41.94 7.52 83.356c0 41.364 33.734 75.155 75.148 75.155 41.36 0 75.102-33.79 75.102-75.155C157.77 41.94 124.03 8.2 82.668 8.2z" fill="#FFF"/><path d="M107.363 81.795c-2.527-2.315-9.074 5.1-7.627 10.9.643.213.97-.156 2.473-2.625 1.122-1.884 3.864-1.51 5.1-2.26 2.096-1.347 2.038-4.247.053-6.015zm-41.845 10.9c1.45-5.8-5.104-13.215-7.63-10.9-1.935 1.768-2.038 4.668.05 6.014 1.29.75 4.03.376 5.1 2.26 1.513 2.47 1.833 2.838 2.48 2.625zm65.212-7.732c-2.09 1.553-5.26 1.664-6.925 4.19-1.457 2.144-2.53 5.42-2.903 8.378-.648 5.7-.59 12.84-4.515 17.572-.805-2.8 1.242-9.08 1.343-17.192.053-3.01 1.125-6.45 2.954-8.71-3.27-.264-3.387.167-3.657-.856-.265-1.02.332-2.15 1.078-3.06 2.415-2.737 5.805-1.29 8.76-2.26 1.983-.696 5.05-1.715 5.268-4.506.1-1.88-5.807-2.313-5.807-2.313-4.734.373-4.242 3.06-7.52 3.326-2.687.22-3.76-2.626-4.618-4.346-1.293-2.74-2.797-8.596 2.634-7.74 2.895.486 3.432 4.68 1.233 7.202 2.04-.216 4.992-2.955 11.98-.755 2.414.756 5.153 1.725 5.528 4.837.267 2.312-2.844 4.783-4.833 6.236zm-21.76 19.174c-1.345 3.762-4.564 9.994-8.59 15.847 1.07-9.293-4.03-15.414-5.263-17.94-2.2-3.382-4.52-10.747-3.172-13.858 2.15-.862 4.73-2.53 6.28-4.893 1.617-2.254 2.482-4.775 5.22-5.527 1.825-.65 3.864-.27 5.368.537 2.42 1.394 3.062 4.72 3.382 7.353.215 5.426-.857 13.434-3.224 18.48zM95.544 122.94c-2.738 2.365-6.283 3.976-11.285 2.47-1.23-.855-.473-3.38.168-4.515 2.312-3.004 5.855-1.82 6.88-3.325.964-1.45.374-2.584-.27-3.328-.81-1.074-2.26-.808-3.388-.486-2.09.47-3.57 1.35-4.834 2.637v.1c-.02-.018-.037-.03-.056-.048-.014.018-.03.03-.05.047v-.097c-1.313-1.286-2.74-2.164-4.837-2.64-1.182-.32-2.577-.587-3.436.487-.59.744-1.24 1.88-.268 3.328 1.02 1.506 4.62.32 6.932 3.325.64 1.134 1.34 3.66.105 4.515-4.94 1.506-8.543-.105-11.28-2.47-6.18-5.32 2.31-16.545 6.446-21.055 2.384-2.496 3.773-4.664 6.34-4.723v-.006c.017 0 .032.004.048.004.02 0 .035-.004.056-.004v.006c2.508.06 3.956 2.23 6.282 4.723 4.193 4.51 12.68 15.736 6.447 21.056zm-12.78 9.46c-1.318.06-10.458-1.818-8.867-5.214 0 0 .32-.32.756-.27 2.727.27 5.723.908 8.137.86 2.413.048 5.405-.59 8.134-.86.43-.05.756.27.756.27 1.59 3.396-7.6 5.273-8.918 5.213zm-26.49-28.263c-2.363-5.047-3.377-13.055-3.218-18.48.38-2.634.966-5.96 3.382-7.354 1.5-.807 3.547-1.188 5.376-.537 2.738.752 3.646 3.273 5.205 5.527 1.56 2.363 4.142 4.03 6.29 4.893 1.344 3.11-.968 10.476-3.173 13.857-1.184 2.527-6.34 8.648-5.215 17.94-4.025-5.852-7.248-12.084-8.647-15.846zM47.195 79.53c-3.277-.266-2.738-2.952-7.46-3.325 0 0-5.91.432-5.805 2.313.164 2.79 3.222 3.81 5.207 4.505 3.013.97 6.394-.476 8.758 2.262.753.91 1.394 2.04 1.076 3.06-.27 1.022-.322.59-3.595.854 1.768 2.26 2.893 5.7 2.957 8.71.047 8.112 2.086 14.393 1.34 17.192-3.977-4.733-3.87-11.87-4.512-17.57-.383-2.96-1.51-6.235-2.904-8.38-1.664-2.525-4.887-2.636-6.932-4.19-1.986-1.452-5.103-3.923-4.834-6.235.377-3.112 3.12-4.08 5.533-4.836 6.985-2.2 9.942.54 11.922.756-2.144-2.52-1.61-6.716 1.243-7.2 5.476-.858 3.976 5 2.687 7.738-.863 1.72-1.992 4.566-4.68 4.347zm82.87 50.216c-5.75.322 5.695-15.146 13.564-21.592 1.845-1.558 4.07-3.388 4.503-6.293.328-2.096-.76-3.49-2.822-3.594-3.142-.11-11.337 4.134-11.45 3.976 14.16-25.515-7.544-38.406 1.472-43.996 3.09-1.992 9.816 0 13.447.537-33.47-19.77-39.33-.053-49.425 9.022-1.574 1.453-8.68 0-10.09-1.664-1.788-2.148-5.316-9.886-1.304-14.988 5.92-7.41 30.165-29.28 52.36-9.94C129.527 23.825 104.63 11 82.7 11.613 60.77 11 35.706 23.825 24.97 41.213c22.137-19.34 46.448 2.53 52.3 9.94 4.07 5.102.492 12.84-1.3 14.99-1.357 1.663-8.462 3.116-10.036 1.663-10.094-9.075-15.946-28.793-49.426-9.022 3.64-.537 10.304-2.53 13.457-.537 9.004 5.59-12.75 18.48 1.46 43.996-.103.158-8.294-4.086-11.445-3.976-2.064.105-3.152 1.498-2.816 3.595.426 2.906 2.598 4.736 4.496 6.294 7.87 6.446 19.313 21.914 13.512 21.592-5.643-.27-18.344-18.908-20.348-23.367 2.34 7.786 6.95 15.144 11.668 21.538 2.496 3.387 5.375 6.176 8.953 7.47 2.334.91 4.715 1.29 7.05.214 1.794-.805 2.984-2.633 3.312-4.678.433-3.006-1.248-6.55-2.768-8.918-2.005-3.377-6.563-9.287-11.884-13.21-7.545-5.59-12.804-7.147-10.85-8.435 1.354-.913 8.52 3.013 9.932 3.763 7.973 4.137 19.094 16.113 20.397 24.983 1.03 6.98-6.998 11.972-12.48 10.09 17.755 15.17 37.556 15.74 44.486 15.902v.002l.032-.002.027.002v-.002c6.89-.162 26.632-.73 44.433-15.9-5.477 1.88-13.504-3.112-12.48-10.092 1.302-8.87 12.374-20.846 20.41-24.983 1.41-.75 8.566-4.676 9.925-3.762 1.95 1.29-3.31 2.847-10.855 8.437-5.313 3.922-9.922 9.832-11.938 13.21-1.46 2.366-3.136 5.91-2.713 8.917.33 2.045 1.475 3.873 3.31 4.678 2.333 1.076 4.724.695 7.003-.215 3.64-1.293 6.506-4.082 9.002-7.47 4.674-6.393 9.336-13.75 11.668-21.538-2.004 4.458-14.705 23.097-20.4 23.366zM82.667 158.51c-41.414 0-75.148-33.79-75.148-75.155C7.52 41.94 41.254 8.2 82.668 8.2c41.36 0 75.102 33.74 75.102 75.155 0 41.364-33.74 75.155-75.102 75.155zm.004-153.078c-42.924 0-77.945 34.978-77.945 77.892 0 42.924 35.02 77.953 77.945 77.953 42.922 0 77.89-35.03 77.89-77.953 0-42.914-34.968-77.892-77.89-77.892z" fill="#0F5C45"/></g></svg>

<?xml version="1.0" encoding="UTF-8" standalone="no"?>
<svg width="166px" height="166px" viewBox="0 0 166 166" version="1.1" xmlns="http://www.w3.org/2000/svg" xmlns:xlink="http://www.w3.org/1999/xlink">
    <!-- Generator: Sketch 3.6.1 (26313) - http://www.bohemiancoding.com/sketch -->
    <title>downloads-logos-print-ram_logo_2_clr</title>
    <desc>Created with Sketch.</desc>
    <defs>
        <path id="path-1" d="M0.06,166 L165.289,166 L165.289,0.711 L0.06,0.711 L0.06,166 L0.06,166 Z"></path>
    </defs>
    <g id="Page-1" stroke="none" stroke-width="1" fill="none" fill-rule="evenodd">
        <g id="downloads-logos-print-ram_logo_2_clr">
            <g id="Group-3">
                <mask id="mask-2" fill="white">
                    <use xlink:href="#path-1"></use>
                </mask>
                <g id="Clip-2"></g>
                <path d="M82.672,7.307 C40.727,7.307 6.602,41.408 6.602,83.324 C6.602,125.275 40.727,159.402 82.672,159.402 C124.586,159.402 158.688,125.275 158.688,83.324 C158.688,41.408 124.586,7.307 82.672,7.307 L82.672,7.307 Z M82.672,166 C37.086,166 0,128.938 0,83.381 C0,37.797 37.086,0.711 82.672,0.711 C128.227,0.711 165.289,37.797 165.289,83.381 C165.289,128.938 128.227,166 82.672,166 L82.672,166 Z" id="Fill-1" fill="#A47F1D" mask="url(#mask-2)"></path>
            </g>
            <path d="M107.309,87.809 C106.074,88.561 103.332,88.186 102.209,90.07 C100.707,92.539 100.379,92.908 99.736,92.695 C98.289,86.896 104.836,79.48 107.363,81.795 C109.348,83.563 109.406,86.463 107.309,87.809 L107.309,87.809 Z M108.813,78.303 C107.309,77.496 105.27,77.115 103.445,77.766 C100.707,78.518 99.842,81.039 98.225,83.293 C96.676,85.656 94.094,87.324 91.945,88.186 C90.598,91.297 92.916,98.662 95.117,102.043 C96.35,104.57 101.449,110.691 100.379,119.984 C104.406,114.131 107.625,107.899 108.971,104.137 C111.338,99.09 112.41,91.082 112.195,85.656 C111.875,83.023 111.232,79.697 108.813,78.303 L108.813,78.303 Z M63.039,90.07 C61.967,88.186 59.227,88.561 57.938,87.809 C55.85,86.463 55.953,83.563 57.887,81.795 C60.414,79.48 66.969,86.896 65.518,92.695 C64.871,92.908 64.551,92.539 63.039,90.07 L63.039,90.07 Z M70.135,102.043 C72.34,98.662 74.652,91.297 73.309,88.186 C71.16,87.324 68.578,85.656 67.018,83.293 C65.459,81.039 64.551,78.518 61.813,77.766 C59.984,77.115 57.938,77.496 56.437,78.303 C54.021,79.697 53.434,83.023 53.055,85.656 C52.896,91.082 53.91,99.09 56.273,104.137 C57.672,107.899 60.895,114.131 64.92,119.984 C63.795,110.691 68.951,104.57 70.135,102.043 L70.135,102.043 Z M49.188,67.445 C46.336,67.93 45.801,72.125 47.945,74.646 C45.965,74.43 43.008,71.691 36.023,73.891 C33.609,74.646 30.867,75.615 30.49,78.727 C30.221,81.039 33.338,83.51 35.324,84.963 C37.369,86.516 40.592,86.627 42.256,89.152 C43.65,91.297 44.777,94.572 45.16,97.531 C45.801,103.231 45.695,110.369 49.672,115.102 C50.418,112.303 48.379,106.022 48.332,97.91 C48.268,94.9 47.143,91.461 45.375,89.199 C48.648,88.936 48.701,89.367 48.971,88.344 C49.289,87.324 48.648,86.195 47.895,85.285 C45.531,82.547 42.15,83.994 39.137,83.023 C37.152,82.328 34.094,81.309 33.93,78.518 C33.824,76.637 39.734,76.205 39.734,76.205 C44.457,76.578 43.918,79.264 47.195,79.531 C49.883,79.75 51.012,76.904 51.875,75.184 C53.164,72.445 54.664,66.588 49.188,67.445 L49.188,67.445 Z M135.563,78.727 C135.188,75.615 132.449,74.646 130.035,73.891 C123.047,71.691 120.094,74.43 118.055,74.646 C120.254,72.125 119.717,67.93 116.822,67.445 C111.391,66.588 112.895,72.445 114.188,75.184 C115.047,76.904 116.119,79.75 118.805,79.531 C122.084,79.264 121.592,76.578 126.326,76.205 C126.326,76.205 132.232,76.637 132.133,78.518 C131.914,81.309 128.848,82.328 126.865,83.023 C123.91,83.994 120.52,82.547 118.105,85.285 C117.359,86.195 116.762,87.324 117.027,88.344 C117.297,89.367 117.414,88.936 120.684,89.199 C118.855,91.461 117.783,94.9 117.73,97.91 C117.629,106.022 115.582,112.303 116.387,115.102 C120.313,110.369 120.254,103.231 120.902,97.531 C121.275,94.572 122.348,91.297 123.805,89.152 C125.469,86.627 128.641,86.516 130.73,84.963 C132.719,83.51 135.83,81.039 135.563,78.727 L135.563,78.727 Z M82.814,97.162 L82.814,97.156 C82.793,97.156 82.777,97.16 82.758,97.16 C82.742,97.16 82.727,97.156 82.709,97.156 L82.709,97.162 C80.143,97.221 78.754,99.389 76.369,101.885 C72.234,106.395 63.742,117.621 69.922,122.941 C72.66,125.305 76.264,126.916 81.203,125.41 C82.439,124.555 81.738,122.029 81.098,120.895 C78.785,117.891 75.187,119.076 74.166,117.57 C73.195,116.121 73.844,114.986 74.434,114.242 C75.293,113.168 76.688,113.434 77.871,113.756 C79.969,114.231 81.395,115.109 82.709,116.395 L82.709,116.492 C82.727,116.475 82.744,116.463 82.758,116.445 C82.777,116.463 82.793,116.475 82.814,116.492 L82.814,116.393 C84.078,115.106 85.557,114.227 87.648,113.756 C88.777,113.434 90.227,113.168 91.035,114.242 C91.68,114.986 92.27,116.121 91.305,117.57 C90.281,119.076 86.738,117.891 84.426,120.895 C83.785,122.029 83.027,124.555 84.258,125.41 C89.26,126.916 92.805,125.305 95.543,122.941 C101.777,117.621 93.289,106.395 89.096,101.885 C86.77,99.391 85.322,97.221 82.814,97.162 L82.814,97.162 Z M90.924,126.916 C88.195,127.186 85.203,127.824 82.789,127.777 C80.375,127.824 77.379,127.186 74.652,126.916 C74.215,126.867 73.896,127.186 73.896,127.186 C72.305,130.582 81.445,132.459 82.762,132.399 C84.08,132.459 93.27,130.582 91.68,127.186 C91.68,127.186 91.355,126.867 90.924,126.916 L90.924,126.916 Z M129.795,135.387 C127.516,136.297 125.125,136.678 122.793,135.602 C120.957,134.797 119.811,132.969 119.482,130.924 C119.059,127.918 120.736,124.373 122.195,122.006 C124.211,118.629 128.82,112.719 134.133,108.797 C141.678,103.207 146.938,101.649 144.988,100.361 C143.629,99.447 136.473,103.373 135.063,104.123 C127.027,108.26 115.955,120.236 114.654,129.106 C113.629,136.086 121.656,141.078 127.133,139.197 C109.332,154.367 89.59,154.936 82.699,155.098 L82.699,155.1 C82.688,155.1 82.68,155.098 82.672,155.098 C82.662,155.098 82.652,155.1 82.641,155.1 L82.641,155.098 C75.711,154.936 55.91,154.367 38.156,139.197 C43.637,141.078 51.666,136.086 50.635,129.106 C49.332,120.236 38.211,108.26 30.238,104.123 C28.826,103.373 21.66,99.447 20.305,100.361 C18.352,101.649 23.611,103.207 31.156,108.797 C36.477,112.719 41.035,118.629 43.039,122.006 C44.559,124.373 46.24,127.918 45.807,130.924 C45.479,132.969 44.289,134.797 42.496,135.602 C40.16,136.678 37.779,136.297 35.445,135.387 C31.867,134.094 28.988,131.305 26.492,127.918 C21.773,121.524 17.164,114.166 14.824,106.379 C16.828,110.838 29.529,129.477 35.172,129.746 C40.973,130.068 29.529,114.6 21.66,108.154 C19.762,106.596 17.59,104.766 17.164,101.861 C16.828,99.764 17.916,98.371 19.98,98.266 C23.131,98.156 31.322,102.4 31.426,102.242 C17.215,76.727 38.969,63.836 29.965,58.246 C26.812,56.254 20.148,58.246 16.508,58.783 C49.988,39.012 55.84,58.73 65.934,67.805 C67.508,69.258 74.613,67.805 75.971,66.141 C77.762,63.992 81.34,56.254 77.271,51.152 C71.418,43.742 47.107,21.873 24.971,41.213 C35.707,23.824 60.771,10.998 82.699,11.613 C104.629,10.998 129.527,23.824 140.32,41.213 C118.125,21.873 93.879,43.742 87.961,51.152 C83.949,56.254 87.477,63.992 89.266,66.141 C90.676,67.805 97.781,69.258 99.355,67.805 C109.449,58.73 115.309,39.012 148.779,58.783 C145.148,58.246 138.422,56.254 135.332,58.246 C126.316,63.836 148.02,76.727 133.861,102.242 C133.973,102.4 142.168,98.156 145.311,98.266 C147.373,98.371 148.461,99.764 148.133,101.861 C147.699,104.766 145.475,106.596 143.629,108.154 C135.76,114.6 124.316,130.068 130.064,129.746 C135.76,129.477 148.461,110.838 150.465,106.379 C148.133,114.166 143.471,121.524 138.797,127.918 C136.301,131.305 133.434,134.094 129.795,135.387 L129.795,135.387 Z M82.668,8.201 C41.254,8.201 7.52,41.941 7.52,83.355 C7.52,124.719 41.254,158.51 82.668,158.51 C124.029,158.51 157.77,124.719 157.77,83.355 C157.77,41.941 124.029,8.201 82.668,8.201 L82.668,8.201 Z" id="Fill-4" fill="#FFFFFF"></path>
            <path d="M107.363,81.795 C104.836,79.48 98.289,86.896 99.736,92.695 C100.379,92.908 100.707,92.539 102.209,90.07 C103.332,88.186 106.074,88.561 107.309,87.809 C109.406,86.463 109.348,83.563 107.363,81.795 L107.363,81.795 Z M65.518,92.695 C66.969,86.896 60.414,79.48 57.887,81.795 C55.953,83.563 55.85,86.463 57.938,87.809 C59.227,88.561 61.967,88.186 63.039,90.07 C64.551,92.539 64.871,92.908 65.518,92.695 L65.518,92.695 Z M130.73,84.963 C128.641,86.516 125.469,86.627 123.805,89.152 C122.348,91.297 121.275,94.572 120.902,97.531 C120.254,103.231 120.313,110.369 116.387,115.102 C115.582,112.303 117.629,106.022 117.73,97.91 C117.783,94.9 118.855,91.461 120.684,89.199 C117.414,88.936 117.297,89.367 117.027,88.344 C116.762,87.324 117.359,86.195 118.105,85.285 C120.52,82.547 123.91,83.994 126.865,83.023 C128.848,82.328 131.914,81.309 132.133,78.518 C132.232,76.637 126.326,76.205 126.326,76.205 C121.592,76.578 122.084,79.264 118.805,79.531 C116.119,79.75 115.047,76.904 114.188,75.184 C112.895,72.445 111.391,66.588 116.822,67.445 C119.717,67.93 120.254,72.125 118.055,74.646 C120.094,74.43 123.047,71.691 130.035,73.891 C132.449,74.646 135.188,75.615 135.563,78.727 C135.83,81.039 132.719,83.51 130.73,84.963 L130.73,84.963 Z M108.971,104.137 C107.625,107.899 104.406,114.131 100.379,119.984 C101.449,110.691 96.35,104.57 95.117,102.043 C92.916,98.662 90.598,91.297 91.945,88.186 C94.094,87.324 96.676,85.656 98.225,83.293 C99.842,81.039 100.707,78.518 103.445,77.766 C105.27,77.115 107.309,77.496 108.813,78.303 C111.232,79.697 111.875,83.023 112.195,85.656 C112.41,91.082 111.338,99.09 108.971,104.137 L108.971,104.137 Z M95.543,122.941 C92.805,125.305 89.26,126.916 84.258,125.41 C83.027,124.555 83.785,122.029 84.426,120.895 C86.738,117.891 90.281,119.076 91.305,117.57 C92.27,116.121 91.68,114.986 91.035,114.242 C90.227,113.168 88.777,113.434 87.648,113.756 C85.557,114.227 84.078,115.106 82.814,116.393 L82.814,116.492 C82.793,116.475 82.777,116.463 82.758,116.445 C82.744,116.463 82.727,116.475 82.709,116.492 L82.709,116.395 C81.395,115.109 79.969,114.231 77.871,113.756 C76.688,113.434 75.293,113.168 74.434,114.242 C73.844,114.986 73.195,116.121 74.166,117.57 C75.187,119.076 78.785,117.891 81.098,120.895 C81.738,122.029 82.439,124.555 81.203,125.41 C76.264,126.916 72.66,125.305 69.922,122.941 C63.742,117.621 72.234,106.395 76.369,101.885 C78.754,99.389 80.143,97.221 82.709,97.162 L82.709,97.156 C82.727,97.156 82.742,97.16 82.758,97.16 C82.777,97.16 82.793,97.156 82.814,97.156 L82.814,97.162 C85.322,97.221 86.77,99.391 89.096,101.885 C93.289,106.395 101.777,117.621 95.543,122.941 L95.543,122.941 Z M82.762,132.399 C81.445,132.459 72.305,130.582 73.896,127.186 C73.896,127.186 74.215,126.867 74.652,126.916 C77.379,127.186 80.375,127.824 82.789,127.777 C85.203,127.824 88.195,127.186 90.924,126.916 C91.355,126.867 91.68,127.186 91.68,127.186 C93.27,130.582 84.08,132.459 82.762,132.399 L82.762,132.399 Z M56.273,104.137 C53.91,99.09 52.896,91.082 53.055,85.656 C53.434,83.023 54.021,79.697 56.437,78.303 C57.938,77.496 59.984,77.115 61.813,77.766 C64.551,78.518 65.459,81.039 67.018,83.293 C68.578,85.656 71.16,87.324 73.309,88.186 C74.652,91.297 72.34,98.662 70.135,102.043 C68.951,104.57 63.795,110.691 64.92,119.984 C60.895,114.131 57.672,107.899 56.273,104.137 L56.273,104.137 Z M47.195,79.531 C43.918,79.264 44.457,76.578 39.734,76.205 C39.734,76.205 33.824,76.637 33.93,78.518 C34.094,81.309 37.152,82.328 39.137,83.023 C42.15,83.994 45.531,82.547 47.895,85.285 C48.648,86.195 49.289,87.324 48.971,88.344 C48.701,89.367 48.648,88.936 45.375,89.199 C47.143,91.461 48.268,94.9 48.332,97.91 C48.379,106.022 50.418,112.303 49.672,115.102 C45.695,110.369 45.801,103.231 45.16,97.531 C44.777,94.572 43.65,91.297 42.256,89.152 C40.592,86.627 37.369,86.516 35.324,84.963 C33.338,83.51 30.221,81.039 30.49,78.727 C30.867,75.615 33.609,74.646 36.023,73.891 C43.008,71.691 45.965,74.43 47.945,74.646 C45.801,72.125 46.336,67.93 49.188,67.445 C54.664,66.588 53.164,72.445 51.875,75.184 C51.012,76.904 49.883,79.75 47.195,79.531 L47.195,79.531 Z M130.064,129.746 C124.316,130.068 135.76,114.6 143.629,108.154 C145.475,106.596 147.699,104.766 148.133,101.861 C148.461,99.764 147.373,98.371 145.311,98.266 C142.168,98.156 133.973,102.4 133.861,102.242 C148.02,76.727 126.316,63.836 135.332,58.246 C138.422,56.254 145.148,58.246 148.779,58.783 C115.309,39.012 109.449,58.73 99.355,67.805 C97.781,69.258 90.676,67.805 89.266,66.141 C87.477,63.992 83.949,56.254 87.961,51.152 C93.879,43.742 118.125,21.873 140.32,41.213 C129.527,23.824 104.629,10.998 82.699,11.613 C60.771,10.998 35.707,23.824 24.971,41.213 C47.107,21.873 71.418,43.742 77.271,51.152 C81.34,56.254 77.762,63.992 75.971,66.141 C74.613,67.805 67.508,69.258 65.934,67.805 C55.84,58.73 49.988,39.012 16.508,58.783 C20.148,58.246 26.812,56.254 29.965,58.246 C38.969,63.836 17.215,76.727 31.426,102.242 C31.322,102.4 23.131,98.156 19.98,98.266 C17.916,98.371 16.828,99.764 17.164,101.861 C17.59,104.766 19.762,106.596 21.66,108.154 C29.529,114.6 40.973,130.068 35.172,129.746 C29.529,129.477 16.828,110.838 14.824,106.379 C17.164,114.166 21.773,121.524 26.492,127.918 C28.988,131.305 31.867,134.094 35.445,135.387 C37.779,136.297 40.16,136.678 42.496,135.602 C44.289,134.797 45.479,132.969 45.807,130.924 C46.24,127.918 44.559,124.373 43.039,122.006 C41.035,118.629 36.477,112.719 31.156,108.797 C23.611,103.207 18.352,101.649 20.305,100.361 C21.66,99.447 28.826,103.373 30.238,104.123 C38.211,108.26 49.332,120.236 50.635,129.106 C51.666,136.086 43.637,141.078 38.156,139.197 C55.91,154.367 75.711,154.936 82.641,155.098 L82.641,155.1 C82.652,155.1 82.662,155.098 82.672,155.098 C82.68,155.098 82.688,155.1 82.699,155.1 L82.699,155.098 C89.59,154.936 109.332,154.367 127.133,139.197 C121.656,141.078 113.629,136.086 114.654,129.106 C115.955,120.236 127.027,108.26 135.063,104.123 C136.473,103.373 143.629,99.447 144.988,100.361 C146.938,101.649 141.678,103.207 134.133,108.797 C128.82,112.719 124.211,118.629 122.195,122.006 C120.736,124.373 119.059,127.918 119.482,130.924 C119.811,132.969 120.957,134.797 122.793,135.602 C125.125,136.678 127.516,136.297 129.795,135.387 C133.434,134.094 136.301,131.305 138.797,127.918 C143.471,121.524 148.133,114.166 150.465,106.379 C148.461,110.838 135.76,129.477 130.064,129.746 L130.064,129.746 Z M82.668,158.51 C41.254,158.51 7.52,124.719 7.52,83.355 C7.52,41.941 41.254,8.201 82.668,8.201 C124.029,8.201 157.77,41.941 157.77,83.355 C157.77,124.719 124.029,158.51 82.668,158.51 L82.668,158.51 Z M82.672,5.432 C39.748,5.432 4.727,40.41 4.727,83.324 C4.727,126.248 39.748,161.277 82.672,161.277 C125.594,161.277 160.563,126.248 160.563,83.324 C160.563,40.41 125.594,5.432 82.672,5.432 L82.672,5.432 Z" id="Fill-5" fill="#0F5C45"></path>
        </g>
    </g>
</svg>
